X:63
T: Die Koenigskinder
N: Q2020F
O: Osteuropa, Tschechoslowakei
N: Eingeklammerte Pausen gespielt.
N: Die"Elslein"-Melodie wird in direkten Zusammenhang zur Balladengruppe
N: gestellt.
R: Ballade, Liebe, Trennung, Tod
M: 6/4
L: 1/4
K: G
 | G2_BA2G | A2Ad2
d | G2A_B2G | =F3z3 |
A2Ac2c | G2G_B2
A | G2ED2=F | G3z3

@@@ Tune index: 692
